superset-frontend/branding/superset-logo-horiz-apache.svg

<?xml version="1.0" encoding="UTF-8" standalone="no"?>
<!DOCTYPE svg PUBLIC "-//W3C//DTD SVG 1.1//EN" "http://www.w3.org/Graphics/SVG/1.1/DTD/svg11.dtd">
<svg width="100%" height="100%" viewBox="0 0 266 69" version="1.1" xmlns="http://www.w3.org/2000/svg" xmlns:xlink="http://www.w3.org/1999/xlink" xml:space="preserve" xmlns:serif="http://www.serif.com/" style="fill-rule:evenodd;clip-rule:evenodd;stroke-linejoin:round;stroke-miterlimit:2;">
    <path d="M73.79,15.23C67.32,15.23 61.36,18.87 55.6,25.23C49.94,18.77 43.88,15.23 37.11,15.23C25.9,15.23 17.72,23.23 17.72,34C17.72,44.77 25.9,52.67 37.11,52.67C44,52.67 49.34,49.44 55.3,43C61.06,49.46 66.92,52.69 73.79,52.69C85,52.67 93.18,44.8 93.18,34C93.18,23.2 85,15.23 73.79,15.23ZM37.19,41.37C32.44,41.37 29.61,38.24 29.61,34.1C29.61,29.96 32.44,26.74 37.19,26.74C41.19,26.74 44.46,29.96 48,34.3C44.66,38.34 41.13,41.37 37.19,41.37ZM73.45,41.37C69.51,41.37 66.18,38.24 62.64,34.1C66.28,29.76 69.41,26.74 73.45,26.74C78.2,26.74 81,30 81,34.1C81,38.2 78.2,41.37 73.45,41.37Z" style="fill:rgb(72,72,72);fill-rule:nonzero;"/>
    <path d="M63.74,50L71.28,41C68.28,40.1 65.51,37.4 62.64,34.05L55.3,43C57.703,45.788 60.556,48.154 63.74,50Z" style="fill:rgb(32,167,201);fill-rule:nonzero;"/>
    <g id="Main">
        <g id="Superset">
            <g id="Full-Lockup-With-Text">
                <g id="Group-7">
                    <g id="Group-17">
                        <g id="Superset-Copy">
                            <g>
                                <path d="M116.72,40.39C116.751,39.474 116.36,38.592 115.66,38C114.539,37.193 113.272,36.609 111.93,36.28C109.421,35.66 107.048,34.582 104.93,33.1C103.37,31.922 102.481,30.053 102.55,28.1C102.528,26.015 103.555,24.052 105.28,22.88C107.327,21.458 109.79,20.754 112.28,20.88C114.812,20.767 117.301,21.577 119.28,23.16C120.994,24.509 121.961,26.601 121.88,28.78L121.88,28.88L116.82,28.88C116.861,27.778 116.419,26.71 115.61,25.96C114.667,25.171 113.457,24.773 112.23,24.85C111.077,24.779 109.934,25.104 108.99,25.77C108.263,26.344 107.842,27.224 107.85,28.15C107.867,28.99 108.298,29.769 109,30.23C110.313,31.008 111.726,31.603 113.2,32C115.582,32.553 117.81,33.633 119.72,35.16C121.197,36.462 122.013,38.362 121.94,40.33C122.008,42.418 121.013,44.404 119.3,45.6C117.238,46.985 114.78,47.662 112.3,47.53C109.663,47.589 107.072,46.823 104.89,45.34C102.838,43.996 101.66,41.648 101.81,39.2L101.81,39.09L107,39.09C106.889,40.389 107.42,41.664 108.42,42.5C109.597,43.291 111.004,43.671 112.42,43.58C113.571,43.658 114.716,43.348 115.67,42.7C116.371,42.144 116.762,41.283 116.72,40.39Z" style="fill:rgb(72,72,72);fill-rule:nonzero;"/>
                                <path d="M137,44.4C136.453,45.359 135.672,46.164 134.73,46.74C132.116,48.188 128.835,47.72 126.73,45.6C125.583,44.267 125.01,42.24 125.01,39.52L125.01,27.85L130.21,27.85L130.21,39.58C130.131,40.629 130.379,41.678 130.92,42.58C131.434,43.208 132.22,43.551 133.03,43.5C133.767,43.516 134.498,43.38 135.18,43.1C135.764,42.836 136.268,42.422 136.64,41.9L136.64,27.85L141.86,27.85L141.86,47.18L137.41,47.18L137,44.4Z" style="fill:rgb(72,72,72);fill-rule:nonzero;"/>
                                <path d="M162.87,38.05C162.99,40.508 162.286,42.937 160.87,44.95C159.569,46.68 157.492,47.658 155.33,47.56C154.4,47.575 153.478,47.384 152.63,47C151.843,46.61 151.158,46.042 150.63,45.34L150.63,54.62L145.43,54.62L145.43,27.85L150.13,27.85L150.44,30.13C150.968,29.331 151.673,28.664 152.5,28.18C153.363,27.707 154.336,27.469 155.32,27.49C157.535,27.403 159.644,28.467 160.89,30.3C162.313,32.49 163.013,35.072 162.89,37.68L162.87,38.05ZM157.65,37.65C157.71,36.118 157.397,34.595 156.74,33.21C156.228,32.144 155.132,31.476 153.95,31.51C153.253,31.49 152.562,31.656 151.95,31.99C151.393,32.322 150.937,32.799 150.63,33.37L150.63,41.86C150.942,42.394 151.4,42.828 151.95,43.11C152.573,43.411 153.259,43.558 153.95,43.54C155.082,43.61 156.161,43.032 156.73,42.05C157.376,40.819 157.684,39.439 157.62,38.05L157.65,37.65Z" style="fill:rgb(72,72,72);fill-rule:nonzero;"/>
                                <path d="M174.21,47.56C171.699,47.674 169.258,46.696 167.52,44.88C165.828,43.026 164.93,40.579 165.02,38.07L165.02,37.36C164.918,34.784 165.761,32.258 167.39,30.26C170.696,26.757 176.29,26.572 179.82,29.85C181.338,31.617 182.119,33.903 182,36.23L182,39.07L170.43,39.07L170.43,39.18C170.48,40.34 170.933,41.447 171.71,42.31C172.51,43.146 173.634,43.595 174.79,43.54C175.762,43.562 176.732,43.444 177.67,43.19C178.539,42.91 179.377,42.542 180.17,42.09L181.58,45.32C180.656,46.037 179.609,46.579 178.49,46.92C177.108,47.366 175.662,47.582 174.21,47.56ZM173.74,31.56C172.841,31.53 171.983,31.946 171.45,32.67C170.859,33.531 170.513,34.537 170.45,35.58L170.5,35.67L176.9,35.67L176.9,35.21C176.949,34.261 176.674,33.322 176.12,32.55C175.546,31.835 174.655,31.446 173.74,31.51L173.74,31.56Z" style="fill:rgb(72,72,72);fill-rule:nonzero;"/>
                                <path d="M195.3,32.33L193.38,32.33C192.711,32.303 192.047,32.47 191.47,32.81C190.964,33.141 190.567,33.614 190.33,34.17L190.33,47.18L185.13,47.18L185.13,27.85L190,27.85L190.23,30.71C190.616,29.787 191.224,28.972 192,28.34C192.71,27.776 193.594,27.476 194.5,27.49C194.741,27.488 194.982,27.508 195.22,27.55L195.89,27.7L195.3,32.33Z" style="fill:rgb(72,72,72);fill-rule:nonzero;"/>
                                <path d="M208.32,41.86C208.308,41.257 207.996,40.698 207.49,40.37C206.544,39.809 205.498,39.435 204.41,39.27C202.553,38.979 200.785,38.271 199.24,37.2C198.087,36.32 197.433,34.93 197.49,33.48C197.487,31.814 198.265,30.24 199.59,29.23C201.198,28.003 203.19,27.386 205.21,27.49C207.312,27.38 209.391,27.991 211.1,29.22C212.489,30.234 213.279,31.882 213.2,33.6L213.2,33.71L208.2,33.71C208.226,33.002 207.958,32.314 207.46,31.81C206.859,31.287 206.074,31.024 205.28,31.08C204.561,31.04 203.85,31.26 203.28,31.7C202.816,32.075 202.55,32.644 202.56,33.24C202.551,33.826 202.837,34.379 203.32,34.71C204.271,35.243 205.318,35.582 206.4,35.71C208.308,35.991 210.126,36.71 211.71,37.81C212.862,38.729 213.506,40.148 213.44,41.62C213.458,43.325 212.62,44.93 211.21,45.89C209.473,47.062 207.403,47.641 205.31,47.54C203.1,47.652 200.925,46.939 199.21,45.54C197.817,44.508 196.996,42.873 197,41.14L197,41.04L201.77,41.04C201.72,41.907 202.093,42.746 202.77,43.29C203.515,43.784 204.397,44.029 205.29,43.99C206.067,44.039 206.838,43.835 207.49,43.41C208.012,43.069 208.326,42.484 208.32,41.86Z" style="fill:rgb(72,72,72);fill-rule:nonzero;"/>
                                <path d="M224.86,47.56C222.352,47.674 219.914,46.696 218.18,44.88C216.488,43.026 215.59,40.579 215.68,38.07L215.68,37.36C215.579,34.786 216.419,32.261 218.04,30.26C221.346,26.757 226.94,26.572 230.47,29.85C231.992,31.615 232.77,33.903 232.64,36.23L232.64,39.07L221.09,39.07L221.09,39.18C221.137,40.339 221.587,41.446 222.36,42.31C223.162,43.149 224.291,43.598 225.45,43.54C226.419,43.562 227.385,43.444 228.32,43.19C229.193,42.912 230.034,42.544 230.83,42.09L232.24,45.32C231.315,46.035 230.268,46.577 229.15,46.92C227.765,47.366 226.315,47.582 224.86,47.56ZM224.4,31.56C223.5,31.526 222.641,31.943 222.11,32.67C221.519,33.532 221.174,34.537 221.11,35.58L221.17,35.67L227.57,35.67L227.57,35.21C227.619,34.261 227.344,33.322 226.79,32.55C226.214,31.832 225.318,31.442 224.4,31.51L224.4,31.56Z" style="fill:rgb(72,72,72);fill-rule:nonzero;"/>
                                <path d="M242.35,23.11L242.35,27.85L245.61,27.85L245.61,31.51L242.35,31.51L242.35,41.36C242.296,41.937 242.465,42.513 242.82,42.97C243.15,43.299 243.604,43.474 244.07,43.45C244.304,43.451 244.538,43.435 244.77,43.4C245.003,43.363 245.233,43.313 245.46,43.25L245.91,47.02C245.408,47.195 244.893,47.332 244.37,47.43C243.834,47.516 243.293,47.56 242.75,47.56C241.219,47.662 239.712,47.126 238.59,46.08C237.508,44.765 236.984,43.077 237.13,41.38L237.13,31.51L234.31,31.51L234.31,27.85L237.13,27.85L237.13,23.11L242.35,23.11Z" style="fill:rgb(72,72,72);fill-rule:nonzero;"/>
                            </g>
                        </g>
                    </g>
                </g>
            </g>
        </g>
    </g>
    <path d="M55.6,25.22C53.213,22.392 50.378,19.973 47.21,18.06L39.66,27.16C42.53,28.16 45.07,30.74 47.77,34.03L48.07,34.24L55.6,25.22Z" style="fill:rgb(32,167,201);fill-rule:nonzero;"/>
    <path d="M130.22,21.43L127.44,21.43L126.9,23L125.3,23L128,15.7L129.63,15.7L132.35,23L130.74,23L130.22,21.43ZM127.83,20.28L129.83,20.28L128.83,17.41L127.83,20.28Z" style="fill:rgb(72,72,72);fill-rule:nonzero;"/>
    <path d="M138.29,20.44C138.327,21.136 138.11,21.822 137.68,22.37C137.051,23.065 136.051,23.297 135.18,22.95C134.939,22.844 134.727,22.683 134.56,22.48L134.56,25.08L133,25.08L133,17.58L134.43,17.58L134.52,18.22C134.682,17.988 134.899,17.8 135.15,17.67C135.416,17.536 135.712,17.471 136.01,17.48C136.667,17.446 137.3,17.738 137.7,18.26C138.13,18.862 138.345,19.591 138.31,20.33L138.29,20.44ZM136.7,20.33C136.721,19.896 136.624,19.464 136.42,19.08C136.254,18.769 135.922,18.582 135.57,18.6C135.358,18.595 135.149,18.644 134.96,18.74C134.792,18.829 134.654,18.965 134.56,19.13L134.56,21.51C134.659,21.661 134.798,21.782 134.96,21.86C135.155,21.945 135.367,21.986 135.58,21.98C135.918,22.006 136.245,21.844 136.43,21.56C136.627,21.217 136.721,20.825 136.7,20.43L136.7,20.33Z" style="fill:rgb(72,72,72);fill-rule:nonzero;"/>
    <path d="M142.72,23C142.667,22.88 142.617,22.75 142.57,22.61C142.529,22.473 142.502,22.332 142.49,22.19C142.323,22.452 142.102,22.673 141.84,22.84C141.544,23.034 141.194,23.129 140.84,23.11C140.326,23.143 139.817,22.986 139.41,22.67C139.07,22.367 138.886,21.925 138.91,21.47C138.893,20.972 139.146,20.501 139.57,20.24C140.164,19.908 140.841,19.755 141.52,19.8L142.41,19.8L142.41,19.37C142.421,19.146 142.342,18.926 142.19,18.76C142.006,18.605 141.77,18.526 141.53,18.54C141.315,18.526 141.102,18.59 140.93,18.72C140.786,18.836 140.708,19.016 140.72,19.2L139.19,19.2C139.175,18.718 139.424,18.265 139.84,18.02C140.371,17.666 141.002,17.491 141.64,17.52C142.248,17.491 142.849,17.663 143.35,18.01C143.79,18.341 144.038,18.87 144.01,19.42L144.01,21.66C144.007,21.899 144.031,22.137 144.08,22.37C144.119,22.6 144.182,22.824 144.27,23.04L142.72,23ZM141.27,22C141.533,22.006 141.792,21.941 142.02,21.81C142.21,21.714 142.364,21.56 142.46,21.37L142.46,20.6L141.57,20.6C141.292,20.581 141.017,20.666 140.8,20.84C140.635,20.979 140.54,21.184 140.54,21.4C140.537,21.569 140.61,21.731 140.74,21.84C140.892,21.955 141.08,22.011 141.27,22Z" style="fill:rgb(72,72,72);fill-rule:nonzero;"/>
    <path d="M147.73,22C147.977,22.01 148.22,21.928 148.41,21.77C148.579,21.618 148.671,21.397 148.66,21.17L150.11,21.17C150.127,21.709 149.876,22.223 149.44,22.54C148.949,22.921 148.341,23.119 147.72,23.1C146.975,23.139 146.247,22.859 145.72,22.33C145.223,21.786 144.963,21.066 145,20.33L145,20.18C144.965,19.446 145.22,18.727 145.71,18.18C146.761,17.225 148.354,17.141 149.5,17.98C149.939,18.35 150.177,18.907 150.14,19.48L148.69,19.48C148.7,19.223 148.61,18.972 148.44,18.78C148.263,18.589 148.01,18.487 147.75,18.5C147.39,18.467 147.041,18.647 146.86,18.96C146.674,19.317 146.584,19.717 146.6,20.12L146.6,20.27C146.583,20.673 146.673,21.073 146.86,21.43C147.02,21.767 147.357,21.988 147.73,22Z" style="fill:rgb(72,72,72);fill-rule:nonzero;"/>
    <path d="M152.58,18.26C152.958,17.76 153.549,17.465 154.176,17.465C154.701,17.465 155.206,17.672 155.58,18.04C155.973,18.53 156.163,19.154 156.11,19.78L156.11,23L154.52,23L154.52,19.77C154.553,19.451 154.468,19.13 154.28,18.87C154.092,18.678 153.828,18.579 153.56,18.6C153.361,18.598 153.164,18.635 152.98,18.71C152.82,18.778 152.679,18.885 152.57,19.02L152.57,23.02L151,23.02L151,15.18L152.59,15.18L152.58,18.26Z" style="fill:rgb(72,72,72);fill-rule:nonzero;"/>
    <path d="M159.92,23.11C159.179,23.132 158.459,22.859 157.92,22.35C157.41,21.848 157.134,21.155 157.16,20.44L157.16,20.24C157.131,19.505 157.389,18.788 157.88,18.24C158.377,17.71 159.085,17.428 159.81,17.47C160.491,17.427 161.16,17.666 161.66,18.13C162.116,18.611 162.354,19.258 162.32,19.92L162.32,20.71L158.81,20.71C158.82,21.041 158.956,21.356 159.19,21.59C159.443,21.83 159.782,21.956 160.13,21.94C160.426,21.944 160.722,21.91 161.01,21.84C161.272,21.76 161.527,21.656 161.77,21.53L162.2,22.44C161.915,22.644 161.597,22.796 161.26,22.89C160.827,23.032 160.375,23.107 159.92,23.11ZM159.78,18.6C159.513,18.592 159.257,18.711 159.09,18.92C158.907,19.153 158.795,19.435 158.77,19.73L160.77,19.73L160.77,19.6C160.783,19.329 160.697,19.063 160.53,18.85C160.331,18.658 160.055,18.566 159.78,18.6Z" style="fill:rgb(72,72,72);fill-rule:nonzero;"/>
    <path d="M248.77,23.62L247.92,23.62L247.92,26.28L247.37,26.28L247.37,23.62L246.52,23.62L246.52,23.14L248.77,23.14L248.77,23.62ZM251.93,24.27L251.05,26.27L250.75,26.27L249.84,24.17L249.84,26.26L249.3,26.26L249.3,23.14L249.98,23.14L250.92,25.42L251.92,23.14L252.57,23.14L252.57,26.28L252.02,26.28L251.93,24.27Z" style="fill:rgb(72,72,72);fill-rule:nonzero;"/>
</svg>

<!--
  Licensed to the Apache Software Foundation (ASF) under one
  or more contributor license agreements.  See the NOTICE file
  distributed with this work for additional information
  regarding copyright ownership.  The ASF licenses this file
  to you under the Apache License, Version 2.0 (the
  "License"); you may not use this file except in compliance
  with the License.  You may obtain a copy of the License at

    http://www.apache.org/licenses/LICENSE-2.0

  Unless required by applicable law or agreed to in writing,
  software distributed under the License is distributed on an
  "AS IS" BASIS, WITHOUT WARRANTIES OR CONDITIONS OF ANY
  KIND, either express or implied.  See the License for the
  specific language governing permissions and limitations
  under the License.
-->
<svg id="Layer_1" data-name="Layer 1" xmlns="http://www.w3.org/2000/svg" viewBox="0 0 265.69 68.51"><defs><style>.cls-1{fill:#484848;}.cls-2{fill:#00d1c1;}.cls-3{isolation:isolate;}</style></defs><title>superset-logo-horiz-apache</title><path class="cls-1" d="M73.79,15.23c-6.47,0-12.43,3.64-18.19,10-5.66-6.46-11.72-10-18.49-10-11.21,0-19.39,8-19.39,18.77S25.9,52.67,37.11,52.67C44,52.67,49.34,49.44,55.3,43c5.76,6.46,11.62,9.69,18.49,9.69C85,52.67,93.18,44.8,93.18,34S85,15.23,73.79,15.23ZM37.19,41.37c-4.75,0-7.58-3.13-7.58-7.27s2.83-7.36,7.58-7.36c4,0,7.27,3.22,10.81,7.56C44.66,38.34,41.13,41.37,37.19,41.37Zm36.26,0c-3.94,0-7.27-3.13-10.81-7.27,3.64-4.34,6.77-7.36,10.81-7.36C78.2,26.74,81,30,81,34.1S78.2,41.37,73.45,41.37Z"/><path class="cls-2" d="M63.74,50l7.54-9c-3-.9-5.77-3.6-8.64-6.95L55.3,43A33,33,0,0,0,63.74,50Z"/><g id="Main"><g id="Superset"><g id="Full-Lockup-With-Text"><g id="Group-7"><g id="Group-17"><g id="Superset-Copy" class="cls-3"><g class="cls-3"><path class="cls-1" d="M116.72,40.39A3,3,0,0,0,115.66,38a10.77,10.77,0,0,0-3.73-1.72,21,21,0,0,1-7-3.18,6,6,0,0,1-2.38-5,6.23,6.23,0,0,1,2.73-5.22,11.27,11.27,0,0,1,7-2,10.46,10.46,0,0,1,7,2.28,6.83,6.83,0,0,1,2.6,5.62l0,.1h-5.06a3.79,3.79,0,0,0-1.21-2.92,4.8,4.8,0,0,0-3.38-1.11,5.08,5.08,0,0,0-3.24.92,3,3,0,0,0-1.14,2.38A2.55,2.55,0,0,0,109,30.23,16.83,16.83,0,0,0,113.2,32a16.38,16.38,0,0,1,6.52,3.16,6.57,6.57,0,0,1,2.22,5.17,6.18,6.18,0,0,1-2.64,5.27,11.46,11.46,0,0,1-7,1.93,12.68,12.68,0,0,1-7.41-2.19,6.84,6.84,0,0,1-3.08-6.14l0-.11H107a4,4,0,0,0,1.42,3.41,6.43,6.43,0,0,0,4,1.08,5.16,5.16,0,0,0,3.25-.88A2.78,2.78,0,0,0,116.72,40.39Z"/><path class="cls-1" d="M137,44.4a6.54,6.54,0,0,1-2.27,2.34,6.7,6.7,0,0,1-8-1.14q-1.72-2-1.72-6.08V27.85h5.2V39.58a5.09,5.09,0,0,0,.71,3,2.52,2.52,0,0,0,2.11.92,5.36,5.36,0,0,0,2.15-.4,3.62,3.62,0,0,0,1.46-1.2V27.85h5.22V47.18h-4.45Z"/><path class="cls-1" d="M162.87,38.05a11.06,11.06,0,0,1-2,6.9,6.56,6.56,0,0,1-5.54,2.61,6.3,6.3,0,0,1-2.7-.56,5.63,5.63,0,0,1-2-1.66v9.28h-5.2V27.85h4.7l.31,2.28a6.26,6.26,0,0,1,2.06-1.95,5.61,5.61,0,0,1,2.82-.69,6.43,6.43,0,0,1,5.57,2.81,12.47,12.47,0,0,1,2,7.38Zm-5.22-.4a9.49,9.49,0,0,0-.91-4.44,3,3,0,0,0-2.79-1.7,3.94,3.94,0,0,0-2,.48,3.58,3.58,0,0,0-1.32,1.38v8.49a3.24,3.24,0,0,0,1.32,1.25,4.34,4.34,0,0,0,2,.43,3,3,0,0,0,2.78-1.49,7.83,7.83,0,0,0,.89-4Z"/><path class="cls-1" d="M174.21,47.56a8.71,8.71,0,0,1-6.69-2.68,9.59,9.59,0,0,1-2.5-6.81v-.71a10.57,10.57,0,0,1,2.37-7.1,8.83,8.83,0,0,1,12.43-.41A9.08,9.08,0,0,1,182,36.23v2.84H170.43l0,.11a5,5,0,0,0,1.28,3.13,4,4,0,0,0,3.08,1.23,10.15,10.15,0,0,0,2.88-.35,13.29,13.29,0,0,0,2.5-1.1l1.41,3.23a9.62,9.62,0,0,1-3.09,1.6A13.26,13.26,0,0,1,174.21,47.56Zm-.47-16a2.73,2.73,0,0,0-2.29,1.11,5.76,5.76,0,0,0-1,2.91l.05.09h6.4v-.46a4.19,4.19,0,0,0-.78-2.66A2.8,2.8,0,0,0,173.74,31.51Z"/><path class="cls-1" d="M195.3,32.33l-1.92,0a3.49,3.49,0,0,0-1.91.48,3.06,3.06,0,0,0-1.14,1.36V47.18h-5.2V27.85H190l.23,2.86A6.09,6.09,0,0,1,192,28.34a3.92,3.92,0,0,1,2.5-.85,4,4,0,0,1,.72.06l.67.15Z"/><path class="cls-1" d="M208.32,41.86a1.82,1.82,0,0,0-.83-1.49,8.55,8.55,0,0,0-3.08-1.1,12.46,12.46,0,0,1-5.17-2.07,4.46,4.46,0,0,1-1.75-3.72,5.33,5.33,0,0,1,2.1-4.25,8.54,8.54,0,0,1,5.62-1.74,9.26,9.26,0,0,1,5.89,1.73,5.13,5.13,0,0,1,2.1,4.38l0,.11h-5a2.57,2.57,0,0,0-.74-1.9,3,3,0,0,0-2.18-.73,3,3,0,0,0-2,.62,1.94,1.94,0,0,0-.72,1.54,1.75,1.75,0,0,0,.76,1.47,8.29,8.29,0,0,0,3.08,1,12.5,12.5,0,0,1,5.31,2.1,4.61,4.61,0,0,1,1.73,3.81,5.1,5.1,0,0,1-2.23,4.27,9.71,9.71,0,0,1-5.9,1.65,8.93,8.93,0,0,1-6.1-2A5.46,5.46,0,0,1,197,41.14l0-.1h4.77a2.69,2.69,0,0,0,1,2.25,4.22,4.22,0,0,0,2.52.7,3.61,3.61,0,0,0,2.2-.58A1.83,1.83,0,0,0,208.32,41.86Z"/><path class="cls-1" d="M224.86,47.56a8.69,8.69,0,0,1-6.68-2.68,9.59,9.59,0,0,1-2.5-6.81v-.71a10.62,10.62,0,0,1,2.36-7.1,8.83,8.83,0,0,1,12.43-.41,9,9,0,0,1,2.17,6.38v2.84H221.09l0,.11a5,5,0,0,0,1.27,3.13,4,4,0,0,0,3.09,1.23,10.08,10.08,0,0,0,2.87-.35,13.08,13.08,0,0,0,2.51-1.1l1.41,3.23a9.73,9.73,0,0,1-3.09,1.6A13.32,13.32,0,0,1,224.86,47.56Zm-.46-16a2.71,2.71,0,0,0-2.29,1.11,5.77,5.77,0,0,0-1,2.91l.06.09h6.4v-.46a4.19,4.19,0,0,0-.78-2.66A2.8,2.8,0,0,0,224.4,31.51Z"/><path class="cls-1" d="M242.35,23.11v4.74h3.26v3.66h-3.26v9.85a2.28,2.28,0,0,0,.47,1.61,1.65,1.65,0,0,0,1.25.48,4.58,4.58,0,0,0,.7-.05,6.28,6.28,0,0,0,.69-.15l.45,3.77a10.69,10.69,0,0,1-1.54.41,10.23,10.23,0,0,1-1.62.13,5.56,5.56,0,0,1-4.16-1.48,6.52,6.52,0,0,1-1.46-4.7V31.51h-2.82V27.85h2.82V23.11Z"/></g></g></g></g></g></g></g><path class="cls-2" d="M55.6,25.22a33.93,33.93,0,0,0-8.39-7.16l-7.55,9.1c2.87,1,5.41,3.58,8.11,6.87l.3.21Z"/><path class="cls-1" d="M130.22,21.43h-2.78L126.9,23h-1.6L128,15.7h1.63l2.72,7.3h-1.61Zm-2.39-1.15h2l-1-2.87h0Z"/><path class="cls-1" d="M138.29,20.44a2.88,2.88,0,0,1-.61,1.93,2.25,2.25,0,0,1-2.5.58,1.68,1.68,0,0,1-.62-.47v2.6H133v-7.5h1.43l.09.64a1.75,1.75,0,0,1,.63-.55,1.79,1.79,0,0,1,.86-.19,2,2,0,0,1,1.69.78,3.29,3.29,0,0,1,.61,2.07Zm-1.59-.11a2.41,2.41,0,0,0-.28-1.25.91.91,0,0,0-.85-.48,1.28,1.28,0,0,0-.61.14,1,1,0,0,0-.4.39v2.38a1,1,0,0,0,.4.35,1.46,1.46,0,0,0,.62.12.93.93,0,0,0,.85-.42,2.05,2.05,0,0,0,.27-1.13Z"/><path class="cls-1" d="M142.72,23q-.08-.18-.15-.39a2.07,2.07,0,0,1-.08-.42,2.12,2.12,0,0,1-.65.65,1.66,1.66,0,0,1-1,.27,2.11,2.11,0,0,1-1.43-.44,1.5,1.5,0,0,1-.5-1.2,1.39,1.39,0,0,1,.66-1.23,3.52,3.52,0,0,1,1.95-.44h.89v-.43a.84.84,0,0,0-.22-.61.94.94,0,0,0-.66-.22.9.9,0,0,0-.6.18.57.57,0,0,0-.21.48h-1.53v0a1.32,1.32,0,0,1,.65-1.18,3,3,0,0,1,1.8-.5,2.77,2.77,0,0,1,1.71.49,1.66,1.66,0,0,1,.66,1.41v2.24a3.23,3.23,0,0,0,.07.71,3.19,3.19,0,0,0,.19.67Zm-1.45-1a1.44,1.44,0,0,0,.75-.19,1,1,0,0,0,.44-.44v-.77h-.89a1.11,1.11,0,0,0-.77.24.73.73,0,0,0-.26.56.56.56,0,0,0,.2.44A.8.8,0,0,0,141.27,22Z"/><path class="cls-1" d="M147.73,22a1,1,0,0,0,.68-.23.76.76,0,0,0,.25-.6h1.45v0a1.63,1.63,0,0,1-.67,1.37,2.67,2.67,0,0,1-1.72.56,2.63,2.63,0,0,1-2-.77,2.76,2.76,0,0,1-.72-2v-.15a2.8,2.8,0,0,1,.71-2,3,3,0,0,1,3.79-.2,1.81,1.81,0,0,1,.64,1.5v0h-1.45a1,1,0,0,0-.25-.7.88.88,0,0,0-.69-.28.93.93,0,0,0-.89.46,2.32,2.32,0,0,0-.26,1.16v.15a2.29,2.29,0,0,0,.26,1.16A1,1,0,0,0,147.73,22Z"/><path class="cls-1" d="M152.58,18.26a2,2,0,0,1,3-.22,2.45,2.45,0,0,1,.53,1.74V23h-1.59V19.77a1.31,1.31,0,0,0-.24-.9.91.91,0,0,0-.72-.27,1.5,1.5,0,0,0-.58.11,1.06,1.06,0,0,0-.41.31v4H151V15.18h1.59Z"/><path class="cls-1" d="M159.92,23.11a2.79,2.79,0,0,1-2-.76,2.55,2.55,0,0,1-.76-1.91v-.2a2.83,2.83,0,0,1,.72-2,2.45,2.45,0,0,1,1.93-.77,2.49,2.49,0,0,1,1.85.66,2.42,2.42,0,0,1,.66,1.79v.79h-3.51v0a1.3,1.3,0,0,0,.38.88,1.28,1.28,0,0,0,.94.35,3.5,3.5,0,0,0,.88-.1,4.51,4.51,0,0,0,.76-.31l.43.91a3,3,0,0,1-.94.45A4.39,4.39,0,0,1,159.92,23.11Zm-.14-4.51a.85.85,0,0,0-.69.32,1.52,1.52,0,0,0-.32.81l0,0h2v-.13a1.13,1.13,0,0,0-.24-.75A.92.92,0,0,0,159.78,18.6Z"/><path class="cls-1" d="M248.77,23.62h-.85v2.66h-.55V23.62h-.85v-.48h2.25Zm3.16.65h0l-.88,2h-.3l-.91-2.1h0v2.09h-.54V23.14h.68l.94,2.28h0l1-2.28h.65v3.14h-.55Z"/></svg>
